src/frontend/assets/amd-logo.svg

<svg
   width="24"
   height="5.7240601"
   viewBox="0 0 24 5.7240601">
  <path
     d="M 5.63664,5.34366 H 4.3056 L 3.89841,4.36152 H 1.68009 L 1.30911,5.34366 H 0 L 2.00001,0.38328 H 3.43284 Z M 2.73465,1.56858 2.00736,3.4959 h 1.52739 z m 7.73703,-1.1853 h 1.0764 V 5.34366 H 10.31151 V 2.24526 L 8.97327,3.80157 H 8.78424 L 7.44609,2.24526 V 5.3436 H 6.20952 V 0.38328 h 1.0764 l 1.59276,1.84008 z m 4.20957,0 c 1.81092,0 2.74173,1.12719 2.74173,2.48727 0,1.42551 -0.90174,2.47311 -2.88,2.47311 H 12.49191 V 0.38328 Z m -0.95286,4.05123 h 0.80718 c 1.24371,0 1.61469,-0.84387 1.61469,-1.57131 0,-0.85104 -0.45828,-1.57089 -1.62924,-1.57089 h -0.79266 v 3.1422 z M 19.88307,1.55943 18.32391,0 H 24 V 5.6763 L 22.44084,4.11705 V 1.55943 Z m -0.002,0.31248 -1.60524,1.60518 v 2.24697 h 2.24667 l 1.60515,-1.60518 h -2.24658 z" />
</svg>

<svg width="24" height="5.724" viewBox="0 0 24 5.724"><path d="M5.637 5.344H4.306l-.408-.982H1.68l-.37.982H0l2-4.96h1.433ZM2.735 1.569l-.728 1.927h1.528zM10.472.383h1.076v4.96h-1.236V2.246L8.973 3.802h-.189L7.446 2.245v3.099H6.21V.384h1.076l1.593 1.84zm4.21 0c1.81 0 2.741 1.127 2.741 2.488 0 1.425-.902 2.473-2.88 2.473h-2.051V.384Zm-.954 4.052h.808c1.243 0 1.614-.844 1.614-1.572 0-.85-.458-1.57-1.629-1.57h-.793zm6.155-2.876L18.323 0H24v5.676l-1.56-1.559V1.559Zm-.002.313-1.605 1.605v2.247h2.247l1.605-1.605H19.88z"/></svg>
